X:28
T:Dusty Windowsills
Z:Gwen 2022-01 d'après la leçon de Jenn Butterworth
M:6/8
R:Jig
K:Ador
|: A2B cBA | eAB cBA | G2G EGG | DGG EGG |
   A2B cBA | e2d efg | age dBG |1 BAG A2B :| BAG Ace |
|: a3  age | def g2f | g2g gfe | dBA GFG |
   EGG DGG | EGG ABc | Bed BAG |1 BAA Ace :|2 BAA A2B |
|: ABA gAf | ABA edB | GGG e2d | BAG edB |
   ABA gAf | e2d efg | age dBG | BAG A2B :|

